X:1
T:The Boys of Malin
M:C
L:1/8
Q:80
C:Arr. by T. Tully
S:Reel
K:HP
[| cB|
{g}ABcd{g}eA{gcd}ce|
{g}fA{g}df{g}edcB|  !
{g}ABcd{g}eA{gcd}ce|
{g}fdBc{gdedc}d2cBABcd{g}eA{gcd}ce|
{g}fA{g}df{g}edcB|  !
{g}ABcd{g}eA{gcd}ce|
{g}fdBc{g}de|] [|
{g}fg|  !
aA{gAGAG}A2ae{gcd}ce|
"flick"a3g{a}fe{g}fg|
aA{gAGAG}A2ae{gcd}ce|  !
{g}fdBc{g}de{g}fgaA{gAGAG}A2ae{gcd}ce|
"flick"a3g{a}fe{g}fg|
af{a}ge{g}fd{g}ec|  !
{g}dfBc{gdedc}d2|] [|
cB|
{g}Ae{gcd}ce{g}Ae{gcd}ce|
{g}Ae{gcd}ce{gdedc}d2cB|  !
{g}Ae{gcd}ce{g}Ae{gcd}ce|
{g}fdBc{gdedc}d2cB{g}Ae{gcd}ce{g}Ae{gcd}ce|
{g}Ae{gcd}ce{gdedc}d2cB|  !
{g}Ae{gcd}ce{g}Ae{gcd}ce|
{g}fdBc{g}de|] [|
{g}fg|  !
aA{gAGAG}A2ac{gcecG}c2|
aA{gAGAG}A2{g}fe{g}fg|
ac{gcecG}c2aA{gAGAG}A2|  !
{g}fdBc{g}de{g}fgaA{gAGAG}A2ac{gcecG}c2|
aA{gAGAG}A2{g}fe{g}fg|
af{a}ge{g}fd{g}ec|  !
{g}dfBc{gdedc}d2|]

